X:1
T:Title
L:1/8
Q:1/4=100
M:4/4
K:C
V:1 treble nm="Grand Piano"
V:1
 E E2 F G2 FE | E8 | E E2 F G2 A2 | G8 | G G2 A B2 c2 | B8 | G G2 G G2 FF | E8 | A A3 BB c2 | %9
w: ?????~????~???? * * * * *|||||||||
 B A3- A3- A/ z/ | A A2 A BB c2 | B8 | G G2 G AA B2 | G8 | F F2 A GG F2 | E8 | A A2 A B2 cc | %17
w: ||||||||
 B A3- A3- A/ z/ | A A2 A B2 cc | B8 | G G2 G A2 BB | A G3- G3- G/ z/ | F F2 A G2 F2 | E8 |] %24
w: |||||||

